X: 0
T: Here Is Joy For Every Age
Z: Piae Cantiones
Z: Copyright © 2003 by Douglas D. Anderson
Z: Released To The Public Domain
L: 1/4
M: 4/4
Q: 1/4=140
V: P1 name="Staff"
%%MIDI program 1 19
K: C
[V: P1]  G G A B | c B A2 | B G A F | G2 G2 | G G A B | c B A2 | B G A F | G2 G2 | B B c c | d2 d2 | d e d c | d2 B2 | B B c B | A2 B2 | B G A F | G2 G2|]
w: Here is joy for ev- ery age, Ev- ery gen- er a tion; Prince and pea- sant, chief and sage, Ev- ery tongue and na- tion: Ev- ery tongue and na- tion, Ev- ery rank and sta- tion Hath to- day sal- va tion, Al- le Al- le lu ia.

